;Generated by Cura LulzBot Edition GCodeWriter Version: 2.6.69
;FLAVOR:RepRap
;TIME:4961
;Filament used: 1.9932m
;Layer height: 0.18
;Generated with Cura_SteamEngine 2.6.69
;This G-Code has been generated specifically for the LulzBot TAZ 6 with standard extruder
G26 ; clear potential 'probe fail' condition
G21 ; set units to Millimetres
M107 ; disable fans
G90 ; absolute positioning
M82 ; set extruder to absolute mode
G92 E0 ; set extruder position to 0
M140 S85 ; start bed heating up
G28 XY ; home X and Y
G1 X-19 Y258 F1000 ; move to safe homing position
M109 R170 ; soften filament before homing Z
G28 Z ; home Z
G1 E-30 F100 ; retract filament
M109 R170 ; wait for extruder to reach wiping temp
G1 X-15 Y100 F3000 ; move above wiper pad
G1 Z1 ; push nozzle into wiper
G1 X-17 Y95 F1000 ; slow wipe
G1 X-17 Y90 F1000 ; slow wipe
G1 X-17 Y85 F1000 ; slow wipe
G1 X-15 Y90 F1000 ; slow wipe
G1 X-17 Y80 F1000 ; slow wipe
G1 X-15 Y95 F1000 ; slow wipe
G1 X-17 Y75 F2000 ; fast wipe
G1 X-15 Y65 F2000 ; fast wipe
G1 X-17 Y70 F2000 ; fast wipe
G1 X-15 Y60 F2000 ; fast wipe
G1 X-17 Y55 F2000 ; fast wipe
G1 X-15 Y50 F2000 ; fast wipe
G1 X-17 Y40 F2000 ; fast wipe
G1 X-15 Y45 F2000 ; fast wipe
G1 X-17 Y35 F2000 ; fast wipe
G1 X-15 Y40 F2000 ; fast wipe
G1 X-17 Y70 F2000 ; fast wipe
G1 X-15 Y30 Z2 F2000 ; fast wipe
G1 X-17 Y35 F2000 ; fast wipe
G1 X-15 Y25 F2000 ; fast wipe
G1 X-17 Y30 F2000 ; fast wipe
G1 X-15 Y25 Z1.5 F1000 ; slow wipe
G1 X-17 Y23 F1000 ; slow wipe
G1 Z10 ; raise extruder
M109 R170 ; wait for extruder to reach probe temp
G1 X-9 Y-9 ; move above first probe point
M204 S100 ; set probing acceleration
G29 ; start auto-leveling sequence
M204 S500 ; restore standard acceleration
G1 X0 Y0 Z15 F5000 ; move up off last probe point
G4 S1 ; pause
M400 ; wait for moves to finish
M117 Heating... ; progress indicator message on LCD
M109 R230 ; wait for extruder to reach printing temp
M190 S85 ; wait for bed to reach printing temp
G1 Z2 E0 F75 ; prime tiny bit of filament into the nozzle
M117 TAZ 6 Printing... ; progress indicator message on LCD

M221 S100
;LAYER_COUNT:10
;LAYER:0
M107
G0 F2625 X68.124 Y89.778 Z0.425
;TYPE:SKIRT
G1 F900 X68.557 Y89.509 E0.01613
G1 X69.026 Y89.312 E0.03223
G1 X69.521 Y89.19 E0.04836
G1 X70.091 Y89.147 E0.06645
G1 X76.083 Y89.227 E0.25608
G1 X203.713 Y89.216 E4.29491
G1 X209.91 Y89.149 E4.49103
G1 X210.418 Y89.184 E4.50714
G1 X210.915 Y89.297 E4.52327
G1 X211.388 Y89.487 E4.5394
G1 X211.825 Y89.748 E4.55551
G1 X212.216 Y90.075 E4.57164
G1 X212.552 Y90.458 E4.58776
G1 X212.823 Y90.889 E4.60387
G1 X213.024 Y91.358 E4.62002
G1 X213.149 Y91.852 E4.63615
G1 X213.195 Y92.402 E4.65361
G1 X213.118 Y187.52 E7.66361
G1 X213.078 Y188.028 E7.67973
G1 X212.958 Y188.523 E7.69585
G1 X212.763 Y188.994 E7.71198
G1 X212.497 Y189.428 E7.72809
G1 X212.166 Y189.815 E7.7442
G1 X211.778 Y190.146 E7.76034
G1 X211.344 Y190.412 E7.77645
G1 X210.873 Y190.608 E7.7926
G1 X210.378 Y190.727 E7.80871
G1 X209.87 Y190.767 E7.82483
G1 X70.07 Y190.844 E12.24878
G1 X69.562 Y190.804 E12.26491
G1 X69.066 Y190.686 E12.28104
G1 X68.595 Y190.491 E12.29717
G1 X68.161 Y190.225 E12.31328
G1 X67.773 Y189.895 E12.3294
G1 X67.441 Y189.508 E12.34553
G1 X67.175 Y189.074 E12.36164
G1 X66.979 Y188.604 E12.37776
G1 X66.859 Y188.108 E12.39391
G1 X66.818 Y187.573 E12.41088
G1 X66.858 Y181.526 E12.60225
G1 X66.859 Y105.967 E14.9933
G1 X66.798 Y92.412 E15.42225
G1 X66.836 Y91.903 E15.4384
G1 X66.952 Y91.408 E15.45449
G1 X67.145 Y90.936 E15.47063
G1 X67.409 Y90.5 E15.48675
G1 X67.738 Y90.111 E15.50288
G1 X68.124 Y89.778 E15.51901
G1 F600 E14.51901
G0 F2625 X70.801 Y91.723
G0 X70.801 Y93.19
G0 X70.893 Y93.314
G0 X70.793 Y93.316
;TYPE:WALL-INNER
G1 F600 E15.51901
G1 F900 X70.789 Y93.175 E15.52347
G1 X71.241 Y93.306 E15.53373
G1 X71.267 Y93.306 E15.53455
G1 X72.441 Y93.307 E15.5717
G1 X73.274 Y93.218 E15.59821
G1 X76.046 Y93.227 E15.68593
G1 X76.649 Y93.275 E15.70508
G1 X77.25 Y93.227 E15.72416
G1 X78.276 Y93.228 E15.75662
G1 X78.974 Y93.22 E15.77871
G1 X80.034 Y93.221 E15.81226
G1 X80.734 Y93.146 E15.83453
G1 X81.398 Y93.147 E15.85555
G1 X82.043 Y93.279 E15.87638
G1 X82.751 Y93.215 E15.89888
G1 X89.622 Y93.208 E16.11631
G1 X96.641 Y93.213 E16.33842
G1 X110.664 Y93.206 E16.78218
G1 X114.191 Y93.213 E16.89379
G1 X135.108 Y93.206 E17.55571
G1 X136.811 Y93.213 E17.6096
G1 X140.322 Y93.206 E17.7207
G1 X142.973 Y93.208 E17.80459
G1 X143.737 Y93.199 E17.82877
G1 X144.729 Y93.2 E17.86016
G1 X145.455 Y93.163 E17.88317
G1 X146.208 Y93.164 E17.907
G1 X146.93 Y93.205 E17.92988
G1 X153.841 Y93.212 E18.14858
G1 X160.889 Y93.205 E18.37161
G1 X174.887 Y93.213 E18.81458
G1 X181.826 Y93.206 E19.03416
G1 X207.087 Y93.218 E19.83354
G1 X207.902 Y93.124 E19.8595
G1 X209.043 Y93.132 E19.89561
G1 X209.178 Y93.133 E19.89988
G1 X209.04 Y93.595 E19.91059
G1 X209.039 Y94.831 E19.9497
G1 X209.132 Y95.63 E19.97516
G1 X209.131 Y96.505 E20.00285
G1 X209.141 Y97.29 E20.02769
G1 X209.132 Y106.864 E20.33066
G1 X209.141 Y107.628 E20.35484
G1 X209.142 Y135.14 E21.22545
G1 X209.136 Y138.611 E21.33529
G1 X209.142 Y142.055 E21.44428
G1 X209.137 Y145.457 E21.55193
G1 X209.143 Y152.41 E21.77196
G1 X209.137 Y166.248 E22.20986
G1 X209.143 Y167.958 E22.26397
G1 X209.137 Y174.808 E22.48074
G1 X209.142 Y178.275 E22.59045
G1 X209.138 Y182.771 E22.73273
G1 X209.156 Y183.721 E22.7628
G1 X209.155 Y185.482 E22.81852
G1 X209.128 Y186.486 E22.85031
G1 X209.128 Y186.777 E22.85951
G1 X208.915 Y186.777 E22.86625
G1 X207.908 Y186.806 E22.89813
G1 X206.005 Y186.805 E22.95835
G1 X205.057 Y186.786 E22.98836
G1 X204.13 Y186.785 E23.01769
G1 X203.422 Y186.739 E23.04015
G1 X202.748 Y186.788 E23.06153
G1 X199.094 Y186.796 E23.17716
G1 X197.29 Y186.789 E23.23425
G1 X192.817 Y186.787 E23.3758
G1 X191.842 Y186.803 E23.40665
G1 X189.983 Y186.802 E23.46548
G1 X189.018 Y186.791 E23.49602
G1 X185.423 Y186.787 E23.60978
G1 X181.904 Y186.794 E23.72114
G1 X174.855 Y186.787 E23.94421
G1 X171.402 Y186.794 E24.05348
G1 X166.944 Y186.783 E24.19455
G1 X166.289 Y186.736 E24.21533
G1 X165.604 Y186.781 E24.23705
G1 X164.665 Y186.78 E24.26677
G1 X163.707 Y186.807 E24.2971
G1 X161.878 Y186.806 E24.35498
G1 X160.875 Y186.794 E24.38672
G1 X153.757 Y186.795 E24.61197
G1 X146.726 Y186.786 E24.83446
G1 X139.886 Y186.797 E25.05091
G1 X132.765 Y186.788 E25.27625
G1 X129.216 Y186.795 E25.38856
G1 X122.077 Y186.789 E25.61448
G1 X120.343 Y186.796 E25.66935
G1 X110.547 Y186.781 E25.97934
G1 X109.886 Y186.736 E26.00031
G1 X109.236 Y186.78 E26.02092
G1 X108.303 Y186.779 E26.05045
G1 X107.546 Y186.789 E26.0744
G1 X100.515 Y186.793 E26.2969
G1 X98.796 Y186.786 E26.3513
G1 X95.292 Y186.792 E26.46218
G1 X82.113 Y186.784 E26.87923
G1 X81.32 Y186.794 E26.90433
G1 X75.962 Y186.789 E27.07388
G1 X74.07 Y186.797 E27.13375
G1 X72.222 Y186.796 E27.19223
G1 X71.298 Y186.672 E27.22173
G1 X71.112 Y186.73 E27.2279
G1 X70.795 Y186.828 E27.2384
G1 X70.79 Y186.497 E27.24468
G1 X70.789 Y186.496 E27.24472
G1 X70.779 Y185.982 E27.26099
G1 X70.78 Y185.345 E27.28115
G1 X70.871 Y184.495 E27.3082
G1 X70.872 Y183.472 E27.34058
G1 X70.858 Y182.611 E27.36783
G1 X70.857 Y161.691 E28.02984
G1 X70.864 Y159.939 E28.08528
G1 X70.859 Y158.196 E28.14043
G1 X70.858 Y133.462 E28.92314
G1 X70.874 Y129.123 E29.06045
G1 X70.928 Y128.518 E29.07967
G1 X70.876 Y127.936 E29.09816
G1 X70.877 Y126.92 E29.13031
G1 X70.863 Y126.306 E29.14974
G1 X70.859 Y123.617 E29.23484
G1 X70.878 Y122.782 E29.26127
G1 X70.879 Y121.834 E29.29127
G1 X70.866 Y121.013 E29.31725
G1 X70.863 Y116.475 E29.46086
G1 X70.886 Y115.603 E29.48846
G1 X70.887 Y114.476 E29.52412
G1 X70.874 Y113.621 E29.55118
G1 X70.875 Y112.545 E29.58523
G1 X70.889 Y111.715 E29.6115
G1 X70.89 Y110.585 E29.64726
G1 X70.875 Y109.808 E29.67185
G1 X70.883 Y107.04 E29.75945
G1 X70.932 Y106.463 E29.77777
G1 X70.878 Y105.824 E29.79806
G1 X70.879 Y104.718 E29.83306
G1 X70.797 Y103.868 E29.86009
G1 X70.798 Y103.101 E29.88436
G1 X70.863 Y102.181 E29.91354
G1 X70.864 Y101.165 E29.94569
G1 X70.79 Y100.231 E29.97534
G1 X70.791 Y99.486 E29.99892
G1 X70.85 Y98.516 E30.02967
G1 X70.854 Y95.701 E30.11875
G1 X70.809 Y94.934 E30.14306
G1 X70.81 Y94.152 E30.16781
G1 X70.793 Y93.342 E30.19345
G1 X70.793 Y93.316
G0 F2625 X70.893 Y93.314
G0 X96.547 Y159.498
G0 X96.567 Y159.595
G1 F900 X95.999 Y159.82 E30.21278
G1 X95.541 Y160.224 E30.23211
G1 X95.253 Y160.755 E30.25122
G1 X95.158 Y161.363 E30.2707
G1 X95.284 Y161.974 E30.29044
G1 X95.591 Y162.47 E30.3089
G1 X95.964 Y162.794 E30.32453
G1 X96.385 Y162.996 E30.33931
G1 X96.929 Y163.081 E30.35673
G1 X97.521 Y162.973 E30.37578
G1 X97.95 Y162.744 E30.39117
G1 X98.342 Y162.356 E30.40862
G1 X98.604 Y161.833 E30.42713
G1 X98.68 Y161.227 E30.44646
G1 X98.544 Y160.638 E30.46559
G1 X98.23 Y160.143 E30.48414
G1 X97.759 Y159.771 E30.50313
G1 X97.178 Y159.578 E30.5225
G1 X96.567 Y159.595 E30.54184
G0 F2625 X96.547 Y159.498
G0 X95.979 Y159.786
G0 X95.51 Y160.2
G0 X93.671 Y162.617
G0 X93.58 Y162.658
G1 F900 X93.274 Y162.202 E30.55922
G1 X93.151 Y162.079 E30.56473
G1 X92.732 Y161.784 E30.58094
G1 X92.256 Y161.643 E30.59665
G1 X91.994 Y161.621 E30.60497
G1 X91.491 Y161.676 E30.62099
G1 X91.031 Y161.896 E30.63712
G1 X90.87 Y162.006 E30.64329
G1 X90.476 Y162.439 E30.66182
G1 X90.246 Y163.01 E30.6813
G1 X90.226 Y163.61 E30.70029
G1 X90.411 Y164.191 E30.71959
G1 X90.781 Y164.669 E30.73872
G1 X91.301 Y165 E30.75822
G1 X91.906 Y165.131 E30.77781
G1 X92.547 Y165.039 E30.79831
G1 X93.192 Y164.642 E30.82227
G1 X93.529 Y164.184 E30.84027
G1 X93.698 Y163.694 E30.85667
G1 X93.717 Y163.174 E30.87314
G1 X93.58 Y162.658 E30.89003
G0 F2625 X93.671 Y162.617
G0 X93.756 Y163.17
G0 X93.737 Y163.701
G0 X93.564 Y164.202
G0 X93.219 Y164.671
G0 X90.473 Y166.544
G0 X90.444 Y166.639
G1 F900 X89.836 Y166.56 E30.90943
G1 X89.232 Y166.697 E30.92903
G1 X88.72 Y167.031 E30.94838
G1 X88.357 Y167.511 E30.96742
G1 X88.176 Y168.077 E30.98622
G1 X88.197 Y168.689 E31.0056
G1 X88.432 Y169.262 E31.0252
G1 X88.85 Y169.719 E31.0448
G1 X89.394 Y169.999 E31.06416
G1 X89.993 Y170.078 E31.08328
G1 X90.574 Y169.955 E31.10207
G1 X91.058 Y169.662 E31.11998
G1 X91.395 Y169.273 E31.13626
G1 X91.593 Y168.857 E31.15084
G1 X91.679 Y168.321 E31.16802
G1 X91.596 Y167.789 E31.18506
G1 X91.391 Y167.36 E31.20011
G1 X91.078 Y167.01 E31.21496
G1 X90.946 Y166.9 E31.2204
G1 X90.444 Y166.639 E31.23831
G0 F2625 X90.473 Y166.544
G0 X91.105 Y166.982
G0 X91.424 Y167.338
G0 X91.634 Y167.778
G0 X91.719 Y168.321
G0 X91.741 Y171.424
G0 X91.753 Y171.523
G1 F900 X91.168 Y171.701 E31.25766
G1 X90.682 Y172.068 E31.27693
G1 X90.35 Y172.58 E31.29624
G1 X90.209 Y173.185 E31.3159
G1 X90.291 Y173.798 E31.33547
G1 X90.57 Y174.336 E31.35465
G1 X91.016 Y174.752 E31.37395
G1 X91.588 Y174.989 E31.39354
G1 X92.203 Y175.015 E31.41302
G1 X92.794 Y174.825 E31.43266
G1 X93.27 Y174.458 E31.45168
G1 X93.598 Y173.94 E31.47109
G1 X93.73 Y173.328 E31.4909
G1 X93.657 Y172.787 E31.50817
G1 X93.587 Y172.6 E31.51449
G1 X93.23 Y172.038 E31.53556
G1 X92.79 Y171.716 E31.55281
G1 X92.344 Y171.55 E31.56787
G1 X91.753 Y171.523 E31.5866
G0 F2625 X91.741 Y171.424
G0 X92.351 Y171.511
G0 X92.808 Y171.681
G0 X93.259 Y172.011
G0 X95.158 Y174.723
G0 X95.252 Y174.755
G1 F900 X95.158 Y175.368 E31.60622
G1 X95.287 Y175.982 E31.62607
G1 X95.617 Y176.504 E31.64562
G1 X96.101 Y176.88 E31.66501
G1 X96.69 Y177.066 E31.68456
G1 X97.301 Y177.04 E31.70391
G1 X97.853 Y176.814 E31.72279
G1 X98.305 Y176.409 E31.74199
G1 X98.593 Y175.868 E31.76139
G1 X98.681 Y175.262 E31.78076
G1 X98.553 Y174.656 E31.80036
G1 X98.224 Y174.138 E31.81978
G1 X97.78 Y173.791 E31.83761
G1 X97.606 Y173.711 E31.84367
G1 X96.947 Y173.559 E31.86508
G1 X96.415 Y173.636 E31.88209
G1 X95.992 Y173.827 E31.89677
G1 X95.644 Y174.124 E31.91125
G1 X95.527 Y174.257 E31.91686
G1 X95.252 Y174.755 E31.93486
G0 F2625 X95.158 Y174.723
G0 X95.616 Y174.096
G0 X95.971 Y173.794
G0 X96.404 Y173.598
G0 X96.948 Y173.52
G0 X100.033 Y173.567
G0 X100.131 Y173.551
G1 F900 X100.33 Y174.127 E31.95414
G1 X100.717 Y174.601 E31.97351
G1 X101.236 Y174.912 E31.99265
G1 X101.827 Y175.03 E32.01173
G1 X102.42 Y174.944 E32.03069
G1 X102.962 Y174.651 E32.05018
G1 X103.373 Y174.189 E32.06975
G1 X103.595 Y173.617 E32.08917
G1 X103.612 Y173.003 E32.10861
G1 X103.414 Y172.422 E32.12803
G1 X103.038 Y171.953 E32.14705
G1 X102.528 Y171.637 E32.16604
G1 X101.937 Y171.51 E32.18517
G1 X101.311 Y171.595 E32.20516
G1 X100.651 Y171.996 E32.2296
G1 X100.305 Y172.464 E32.24801
G1 X100.136 Y172.977 E32.26511
G1 X100.131 Y173.551 E32.28327
G0 F2625 X100.033 Y173.567
G0 X100.097 Y172.971
G0 X100.27 Y172.446
G0 X100.625 Y171.967
G0 X102.826 Y169.823
G0 X102.884 Y169.743
G1 F900 X103.392 Y169.999 E32.30127
G1 X103.929 Y170.079 E32.31845
G1 X104.472 Y169.991 E32.33586
G1 X104.997 Y169.713 E32.35466
G1 X105.413 Y169.255 E32.37424
G1 X105.648 Y168.669 E32.39422
G1 X105.656 Y168.091 E32.41251
G1 X105.619 Y167.897 E32.41876
G1 X105.41 Y167.379 E32.43644
G1 X104.996 Y166.926 E32.45586
G1 X104.454 Y166.642 E32.47522
G1 X103.844 Y166.559 E32.4947
G1 X103.251 Y166.692 E32.51393
G1 X102.777 Y166.983 E32.53153
G1 X102.436 Y167.379 E32.54807
G1 X102.242 Y167.797 E32.56265
G1 X102.161 Y168.323 E32.5795
G1 X102.247 Y168.864 E32.59683
G1 X102.488 Y169.344 E32.61383
G1 X102.884 Y169.743 E32.63162
G0 F2625 X102.826 Y169.823
G0 X102.456 Y169.367
G0 X102.209 Y168.876
G0 X102.121 Y168.323
G0 X102.182 Y165.199
G0 X102.163 Y165.101
G1 F900 X102.714 Y164.917 E32.65
G1 X103.192 Y164.533 E32.6694
G1 X103.51 Y164.015 E32.68864
G1 X103.628 Y163.432 E32.70746
G1 X103.55 Y162.838 E32.72642
G1 X103.27 Y162.306 E32.74544
G1 X102.873 Y161.925 E32.76285
G1 X102.364 Y161.681 E32.78072
G1 X101.773 Y161.612 E32.79955
G1 X101.225 Y161.745 E32.81739
G1 X101.044 Y161.825 E32.82365
G1 X100.577 Y162.174 E32.8421
G1 X100.246 Y162.689 E32.86147
G1 X100.109 Y163.292 E32.88104
G1 X100.198 Y163.943 E32.90184
G1 X100.599 Y164.594 E32.92603
G1 X101.062 Y164.93 E32.94413
G1 X101.515 Y165.092 E32.95936
G1 X101.98 Y165.113 E32.97409
G1 X102.163 Y165.101 E32.97989
G0 F2625 X102.182 Y165.199
G0 X98.66 Y167.683
G0 X98.566 Y167.715
G1 F900 X98.386 Y167.369 E32.99223
G1 X98.298 Y167.247 E32.99699
G1 X98.011 Y166.945 E33.01018
G1 X97.532 Y166.671 E33.02764
G1 X96.966 Y166.567 E33.04585
G1 X96.77 Y166.575 E33.05206
G1 X96.213 Y166.703 E33.07014
G1 X95.698 Y167.048 E33.08976
G1 X95.339 Y167.537 E33.10896
G1 X95.167 Y168.11 E33.12789
G1 X95.198 Y168.714 E33.14703
G1 X95.443 Y169.286 E33.16672
G1 X95.863 Y169.732 E33.18611
G1 X96.407 Y170.006 E33.20538
G1 X97.016 Y170.078 E33.22479
G1 X97.601 Y169.943 E33.24378
G1 X98.07 Y169.645 E33.26137
G1 X98.397 Y169.265 E33.27723
G1 X98.594 Y168.848 E33.29183
G1 X98.677 Y168.308 E33.30912
G1 X98.566 Y167.715 E33.32821
G0 F2625 X98.66 Y167.683
G0 X103.843 Y166.52
G0 X139.761 Y164.219
G0 X139.86 Y164.217
G1 F900 X140.096 Y165.39 E33.36607
G1 X140.711 Y166.414 E33.40387
G1 X141.64 Y167.175 E33.44187
G1 X142.763 Y167.579 E33.47964
G1 X143.961 Y167.581 E33.51755
G1 X145.075 Y167.19 E33.55491
G1 X146.011 Y166.432 E33.59303
G1 X146.571 Y165.551 E33.62606
G1 X146.783 Y164.905 E33.64757
G1 X146.85 Y164.379 E33.66435
G1 X146.873 Y164.116 E33.67271
G1 X146.803 Y163.411 E33.69513
G1 X146.518 Y162.574 E33.72311
G1 X145.874 Y161.659 E33.75852
G1 X144.939 Y160.979 E33.7951
G1 X143.757 Y160.632 E33.83408
G1 X142.574 Y160.699 E33.87158
G1 X141.466 Y161.171 E33.90969
G1 X140.901 Y161.684 E33.93384
G1 X140.575 Y161.997 E33.94814
G1 X140.024 Y163.055 E33.98589
G1 X139.86 Y164.217 E34.02303
G0 F2625 X139.761 Y164.219
G0 X140.059 Y165.404
G0 X141.737 Y171.101
G0 X141.781 Y171.19
G1 F900 X141.168 Y171.635 E34.047
G1 X140.815 Y171.918 E34.06131
G1 X140.393 Y172.531 E34.08487
G1 X140.162 Y172.902 E34.0987
G1 X139.967 Y173.643 E34.12294
G1 X139.87 Y174.074 E34.13692
G1 X139.935 Y174.818 E34.16056
G1 X139.991 Y175.264 E34.17478
G1 X140.32 Y175.97 E34.19943
G1 X140.517 Y176.363 E34.21334
G1 X141.36 Y177.199 E34.25091
G1 X142.44 Y177.707 E34.28868
G1 X143.653 Y177.82 E34.32723
G1 X144.786 Y177.533 E34.36422
G1 X145.778 Y176.876 E34.40187
G1 X146.473 Y175.957 E34.43833
G1 X146.789 Y175.093 E34.46744
G1 X146.874 Y174.321 E34.49202
G1 X146.796 Y173.588 E34.51535
