;Generated by Cura LulzBot Edition GCodeWriter Version: 2.6.69
;FLAVOR:RepRap
;TIME:11422
;Filament used: 3.50469m
;Layer height: 0.18
;Generated with Cura_SteamEngine 2.6.69
;This G-Code has been generated specifically for the LulzBot TAZ 6 with standard extruder
G26 ; clear potential 'probe fail' condition
G21 ; set units to Millimetres
M107 ; disable fans
G90 ; absolute positioning
M82 ; set extruder to absolute mode
G92 E0 ; set extruder position to 0
M140 S85 ; start bed heating up
G28 XY ; home X and Y
G1 X-19 Y258 F1000 ; move to safe homing position
M109 R170 ; soften filament before homing Z
G28 Z ; home Z
G1 E-30 F100 ; retract filament
M109 R170 ; wait for extruder to reach wiping temp
G1 X-15 Y100 F3000 ; move above wiper pad
G1 Z1 ; push nozzle into wiper
G1 X-17 Y95 F1000 ; slow wipe
G1 X-17 Y90 F1000 ; slow wipe
G1 X-17 Y85 F1000 ; slow wipe
G1 X-15 Y90 F1000 ; slow wipe
G1 X-17 Y80 F1000 ; slow wipe
G1 X-15 Y95 F1000 ; slow wipe
G1 X-17 Y75 F2000 ; fast wipe
G1 X-15 Y65 F2000 ; fast wipe
G1 X-17 Y70 F2000 ; fast wipe
G1 X-15 Y60 F2000 ; fast wipe
G1 X-17 Y55 F2000 ; fast wipe
G1 X-15 Y50 F2000 ; fast wipe
G1 X-17 Y40 F2000 ; fast wipe
G1 X-15 Y45 F2000 ; fast wipe
G1 X-17 Y35 F2000 ; fast wipe
G1 X-15 Y40 F2000 ; fast wipe
G1 X-17 Y70 F2000 ; fast wipe
G1 X-15 Y30 Z2 F2000 ; fast wipe
G1 X-17 Y35 F2000 ; fast wipe
G1 X-15 Y25 F2000 ; fast wipe
G1 X-17 Y30 F2000 ; fast wipe
G1 X-15 Y25 Z1.5 F1000 ; slow wipe
G1 X-17 Y23 F1000 ; slow wipe
G1 Z10 ; raise extruder
M109 R170 ; wait for extruder to reach probe temp
G1 X-9 Y-9 ; move above first probe point
M204 S100 ; set probing acceleration
G29 ; start auto-leveling sequence
M204 S500 ; restore standard acceleration
G1 X0 Y0 Z15 F5000 ; move up off last probe point
G4 S1 ; pause
M400 ; wait for moves to finish
M117 Heating... ; progress indicator message on LCD
M109 R230 ; wait for extruder to reach printing temp
M190 S85 ; wait for bed to reach printing temp
G1 Z2 E0 F75 ; prime tiny bit of filament into the nozzle
M117 TAZ 6 Printing... ; progress indicator message on LCD

M221 S100
;LAYER_COUNT:96
;LAYER:0
M107
G0 F2625 X67.212 Y88.848 Z0.425
;TYPE:SKIRT
G1 F900 X67.646 Y88.581 E0.01612
G1 X68.116 Y88.386 E0.03223
G1 X68.611 Y88.266 E0.04835
G1 X69.126 Y88.225 E0.06469
G1 X210.832 Y88.26 E4.54896
G1 X211.34 Y88.3 E4.56508
G1 X211.835 Y88.419 E4.58119
G1 X212.306 Y88.614 E4.59733
G1 X212.74 Y88.88 E4.61343
G1 X213.128 Y89.211 E4.62957
G1 X213.459 Y89.598 E4.64569
G1 X213.726 Y90.032 E4.66181
G1 X213.921 Y90.503 E4.67794
G1 X214.04 Y90.998 E4.69405
G1 X214.081 Y91.509 E4.71028
G1 X214.096 Y188.484 E7.77904
G1 X214.056 Y188.992 E7.79516
G1 X213.937 Y189.488 E7.8113
G1 X213.743 Y189.959 E7.82742
G1 X213.477 Y190.393 E7.84353
G1 X213.146 Y190.781 E7.85967
G1 X212.759 Y191.112 E7.87578
G1 X212.325 Y191.379 E7.89191
G1 X211.854 Y191.575 E7.90805
G1 X211.359 Y191.694 E7.92416
G1 X210.846 Y191.735 E7.94045
G1 X69.165 Y191.748 E12.42392
G1 X68.657 Y191.708 E12.44005
G1 X68.162 Y191.589 E12.45616
G1 X67.691 Y191.395 E12.47228
G1 X67.256 Y191.129 E12.48841
G1 X66.869 Y190.798 E12.50453
G1 X66.538 Y190.411 E12.52064
G1 X66.271 Y189.977 E12.53677
G1 X66.075 Y189.506 E12.55291
G1 X65.956 Y189.011 E12.56902
G1 X65.915 Y188.518 E12.58468
G1 X65.828 Y174.492 E13.02853
G1 X65.637 Y169.21 E13.19579
G1 X65.639 Y168.93 E13.20465
G1 X65.824 Y165.24 E13.32157
G1 X65.895 Y159.792 E13.49398
G1 X65.875 Y91.476 E15.65583
G1 X65.915 Y90.968 E15.67196
G1 X66.033 Y90.473 E15.68806
G1 X66.228 Y90.002 E15.70419
G1 X66.494 Y89.567 E15.72033
G1 X66.825 Y89.179 E15.73647
G1 X67.212 Y88.848 E15.75258
G1 F600 E14.75258
G0 F2625 X69.746 Y90.818
G0 X69.904 Y92.246
G0 X70.14 Y92.332
G0 X70.14 Y92.232
;TYPE:WALL-INNER
G1 F600 E15.75258
G1 F900 X72.324 Y92.231 E15.8217
G1 X72.888 Y92.215 E15.83955
G1 X73.635 Y92.214 E15.86319
G1 X74.18 Y92.236 E15.88045
G1 X75.319 Y92.235 E15.91649
G1 X75.858 Y92.243 E15.93355
G1 X88.186 Y92.239 E16.32367
G1 X88.725 Y92.219 E16.34074
G1 X89.582 Y92.218 E16.36786
G1 X90.123 Y92.239 E16.38499
G1 X93.502 Y92.245 E16.49192
G1 X106.218 Y92.234 E16.89431
G1 X106.756 Y92.217 E16.91135
G1 X107.514 Y92.216 E16.93533
G1 X108.034 Y92.237 E16.9518
G1 X109.176 Y92.236 E16.98794
G1 X109.725 Y92.243 E17.00532
G1 X116.174 Y92.244 E17.20939
G1 X122.317 Y92.235 E17.40379
G1 X122.843 Y92.215 E17.42044
G1 X123.586 Y92.214 E17.44396
G1 X124.112 Y92.236 E17.46062
G1 X130.568 Y92.245 E17.66492
G1 X135.223 Y92.237 E17.81222
G1 X135.758 Y92.218 E17.82916
G1 X136.53 Y92.217 E17.85359
G1 X137.068 Y92.237 E17.87063
G1 X143.34 Y92.244 E18.06911
G1 X147.554 Y92.236 E18.20246
G1 X148.08 Y92.216 E18.21912
G1 X148.828 Y92.215 E18.24279
G1 X149.359 Y92.236 E18.2596
G1 X155.739 Y92.245 E18.4615
G1 X159.849 Y92.236 E18.59156
G1 X160.37 Y92.215 E18.60806
G1 X161.109 Y92.214 E18.63144
G1 X161.646 Y92.236 E18.64845
G1 X164.677 Y92.243 E18.74437
G1 X170.672 Y92.234 E18.93408
G1 X171.217 Y92.217 E18.95133
G1 X171.979 Y92.216 E18.97545
G1 X172.5 Y92.237 E18.99195
G1 X180.621 Y92.243 E19.24893
G1 X185.076 Y92.236 E19.38991
G1 X185.606 Y92.216 E19.4067
G1 X186.353 Y92.215 E19.43033
G1 X186.887 Y92.237 E19.44725
G1 X199.19 Y92.237 E19.83657
G1 X199.722 Y92.22 E19.85342
G1 X200.588 Y92.219 E19.88082
G1 X201.103 Y92.239 E19.89713
G1 X210.102 Y92.249 E20.1819
G1 X210.115 Y96.414 E20.3137
G1 X210.13 Y96.938 E20.33029
G1 X210.131 Y97.832 E20.35858
G1 X210.113 Y98.388 E20.37619
G1 X210.106 Y104.875 E20.58147
G1 X210.114 Y110.879 E20.77146
G1 X210.13 Y111.393 E20.78774
G1 X210.131 Y112.28 E20.81581
G1 X210.111 Y112.821 E20.83294
G1 X210.105 Y119.254 E21.03651
G1 X210.112 Y123.619 E21.17464
G1 X210.13 Y124.164 E21.19189
G1 X210.131 Y125.152 E21.22316
G1 X210.112 Y125.704 E21.24064
G1 X210.106 Y127.175 E21.28719
G1 X210.111 Y137.811 E21.62376
G1 X210.129 Y138.352 E21.64089
G1 X210.13 Y139.291 E21.67061
G1 X210.11 Y139.826 E21.68755
G1 X210.104 Y146.68 E21.90444
G1 X210.111 Y154.338 E22.14678
G1 X210.128 Y154.861 E22.16334
G1 X210.129 Y155.748 E22.19141
G1 X210.111 Y156.268 E22.20787
G1 X210.105 Y159.478 E22.30945
G1 X210.113 Y167.083 E22.55011
G1 X210.13 Y167.625 E22.56727
G1 X210.131 Y168.616 E22.59863
G1 X210.111 Y169.193 E22.6169
G1 X210.112 Y181.721 E23.01335
G1 X210.131 Y182.253 E23.03019
G1 X210.132 Y183.115 E23.05747
G1 X210.112 Y183.659 E23.0747
G1 X210.107 Y187.756 E23.20435
G1 X204.481 Y187.759 E23.38238
G1 X203.969 Y187.778 E23.39859
G1 X203.093 Y187.779 E23.42631
G1 X202.588 Y187.759 E23.44231
G1 X196.319 Y187.754 E23.64069
G1 X192.226 Y187.763 E23.77021
G1 X191.693 Y187.779 E23.78709
G1 X190.814 Y187.78 E23.8149
G1 X190.287 Y187.762 E23.83159
G1 X176.309 Y187.762 E24.27392
G1 X175.781 Y187.778 E24.29064
G1 X174.892 Y187.779 E24.31877
G1 X174.369 Y187.76 E24.33533
G1 X158.672 Y187.762 E24.83206
G1 X158.136 Y187.781 E24.84903
G1 X157.277 Y187.782 E24.87621
G1 X156.738 Y187.762 E24.89328
G1 X142.616 Y187.761 E25.34017
G1 X142.087 Y187.778 E25.35692
G1 X141.199 Y187.779 E25.38502
G1 X140.689 Y187.761 E25.40117
G1 X123.433 Y187.762 E25.94723
G1 X122.92 Y187.779 E25.96348
G1 X122.126 Y187.78 E25.9886
G1 X121.602 Y187.761 E26.00519
G1 X109.423 Y187.761 E26.3906
G1 X108.907 Y187.779 E26.40694
G1 X108.029 Y187.78 E26.43472
G1 X107.504 Y187.762 E26.45134
G1 X104.36 Y187.757 E26.55083
G1 X91.785 Y187.763 E26.94877
G1 X91.253 Y187.779 E26.96561
G1 X90.291 Y187.78 E26.99605
G1 X89.754 Y187.762 E27.01306
G1 X86.524 Y187.754 E27.11527
G1 X79.492 Y187.759 E27.3378
G1 X78.972 Y187.779 E27.35426
G1 X78.014 Y187.78 E27.38458
G1 X77.472 Y187.76 E27.40174
G1 X70.143 Y187.757 E27.63367
G1 X69.893 Y187.757 E27.64158
G1 X69.893 Y187.507 E27.6467
G1 X69.899 Y177.551 E27.96175
G1 X69.863 Y176.99 E27.97954
G1 X69.862 Y176.129 E28.00679
G1 X69.846 Y175.536 E28.02556
G1 X69.845 Y175.041 E28.04123
G1 X69.83 Y174.231 E28.06686
G1 X69.828 Y173.501 E28.08996
G1 X69.839 Y172.938 E28.10778
G1 X69.736 Y171.332 E28.15871
G1 X69.699 Y170.916 E28.17192
G1 X69.637 Y169.823 E28.20657
G1 X69.63 Y169.257 E28.22448
G1 X69.635 Y168.691 E28.24239
G1 X69.742 Y167.207 E28.28947
G1 X69.831 Y166.624 E28.30814
G1 X69.912 Y165.43 E28.34601
G1 X69.912 Y164.175 E28.38572
G1 X69.944 Y163.876 E28.39524
G1 X69.929 Y163.564 E28.40512
G1 X69.928 Y162.323 E28.44439
G1 X69.904 Y161.903 E28.45771
G1 X69.903 Y160.741 E28.49448
G1 X69.895 Y160.25 E28.51002
G1 X69.888 Y150.735 E28.81112
G1 X69.872 Y150.229 E28.82714
G1 X69.871 Y149.379 E28.85404
G1 X69.889 Y148.875 E28.87
G1 X69.895 Y136.021 E29.27676
G1 X69.889 Y128.12 E29.52678
G1 X69.87 Y127.573 E29.54411
G1 X69.869 Y126.613 E29.57448
G1 X69.889 Y126.063 E29.5919
G1 X69.891 Y98.347 E30.46897
G1 X69.874 Y97.845 E30.48486
G1 X69.873 Y96.987 E30.51201
G1 X69.892 Y96.467 E30.52848
G1 X69.89 Y92.482 E30.65459
G1 X69.89 Y92.232 E30.6625
G1 X70.14 Y92.232 E30.66762
G0 F2625 X70.14 Y92.332
G0 X81.65 Y97.16
G0 X81.72 Y97.23
G1 F900 X81.72 Y182.73 E33.37325
G1 X199.28 Y182.73 E37.09342
G1 X199.28 Y97.23 E39.79905
G1 X81.72 Y97.23 E43.51922
G0 F2625 X82.22 Y97.73
;TYPE:WALL-OUTER
G1 F900 X82.22 Y182.23 E46.19321
G1 X198.78 Y182.23 E49.88173
G1 X198.78 Y97.73 E52.55572
G1 X82.22 Y97.73 E56.24424
G0 F2625 X82.22 Y97.98
G0 X81.62 Y97.98
G0 X81.692 Y97.202
G0 X88.197 Y92.339
G0 X88.176 Y91.739
G1 F900 X88.706 Y91.719 E56.26103
G1 X89.601 Y91.718 E56.28935
G1 X90.133 Y91.739 E56.3062
G1 X93.502 Y91.745 E56.41281
G1 X106.21 Y91.734 E56.81495
G1 X106.74 Y91.717 E56.83173
G1 X107.534 Y91.716 E56.85686
G1 X108.044 Y91.737 E56.87301
G1 X109.182 Y91.736 E56.90902
G1 X109.728 Y91.743 E56.9263
G1 X116.174 Y91.744 E57.13028
G1 X122.307 Y91.735 E57.32436
G1 X122.824 Y91.715 E57.34074
G1 X123.606 Y91.714 E57.36548
G1 X124.123 Y91.736 E57.38186
G1 X130.568 Y91.745 E57.58581
G1 X135.214 Y91.737 E57.73283
G1 X135.74 Y91.718 E57.74949
G1 X136.548 Y91.717 E57.77506
G1 X137.078 Y91.737 E57.79184
G1 X143.34 Y91.744 E57.99
G1 X147.544 Y91.736 E58.12303
G1 X148.061 Y91.716 E58.13941
G1 X148.847 Y91.715 E58.16428
G1 X149.369 Y91.736 E58.18081
G1 X155.739 Y91.745 E58.38239
G1 X159.838 Y91.736 E58.5121
G1 X160.349 Y91.715 E58.52829
G1 X161.129 Y91.714 E58.55297
G1 X161.657 Y91.736 E58.56969
G1 X164.677 Y91.743 E58.66526
G1 X170.664 Y91.734 E58.85472
G1 X171.201 Y91.717 E58.87172
G1 X171.998 Y91.716 E58.89694
G1 X172.51 Y91.737 E58.91316
G1 X180.621 Y91.743 E59.16983
G1 X185.066 Y91.736 E59.31049
G1 X185.587 Y91.716 E59.32699
G1 X186.373 Y91.715 E59.35186
G1 X186.897 Y91.737 E59.36846
G1 X199.182 Y91.737 E59.75721
G1 X199.706 Y91.72 E59.77381
G1 X200.607 Y91.719 E59.80232
G1 X201.113 Y91.739 E59.81834
G1 X210.601 Y91.75 E60.11859
G1 X210.615 Y96.406 E60.26593
G1 X210.63 Y96.937 E60.28274
G1 X210.631 Y97.848 E60.31157
G1 X210.613 Y98.396 E60.32892
G1 X210.606 Y104.875 E60.53394
G1 X210.614 Y110.871 E60.72369
G1 X210.63 Y111.392 E60.74018
G1 X210.631 Y112.299 E60.76888
G1 X210.611 Y112.831 E60.78573
G1 X210.605 Y119.254 E60.98898
G1 X210.612 Y123.61 E61.12683
G1 X210.63 Y124.147 E61.14383
G1 X210.631 Y125.169 E61.17617
G1 X210.612 Y125.712 E61.19337
G1 X210.613 Y126.691 E61.22435
G1 X210.606 Y127.178 E61.23976
G1 X210.611 Y137.802 E61.57596
G1 X210.629 Y138.335 E61.59283
G1 X210.63 Y139.31 E61.62369
G1 X210.61 Y139.836 E61.64034
G1 X210.604 Y146.68 E61.85692
G1 X210.611 Y154.33 E62.099
G1 X210.628 Y154.844 E62.11528
G1 X210.629 Y155.766 E62.14445
G1 X210.611 Y156.277 E62.16063
G1 X210.605 Y159.478 E62.26193
G1 X210.613 Y167.075 E62.50234
G1 X210.63 Y167.609 E62.51924
G1 X210.631 Y168.634 E62.55168
G1 X210.611 Y169.202 E62.56966
G1 X210.612 Y181.712 E62.96554
G1 X210.631 Y182.235 E62.9821
G1 X210.632 Y183.134 E63.01055
G1 X210.612 Y183.669 E63.02749
G1 X210.606 Y188.256 E63.17265
G1 X204.491 Y188.259 E63.36616
G1 X203.988 Y188.278 E63.38208
G1 X203.074 Y188.279 E63.41101
G1 X202.578 Y188.259 E63.42672
G1 X196.319 Y188.254 E63.62478
G1 X192.234 Y188.263 E63.75405
G1 X191.708 Y188.279 E63.7707
G1 X190.798 Y188.28 E63.7995
G1 X190.278 Y188.262 E63.81597
G1 X176.317 Y188.262 E64.25776
G1 X175.796 Y188.278 E64.27425
G1 X174.875 Y188.279 E64.3034
G1 X174.36 Y188.26 E64.31971
G1 X158.681 Y188.262 E64.81587
G1 X158.154 Y188.281 E64.83256
G1 X157.259 Y188.282 E64.86088
G1 X156.729 Y188.262 E64.87766
G1 X142.624 Y188.261 E65.32401
G1 X142.103 Y188.278 E65.34051
G1 X141.182 Y188.279 E65.36965
G1 X140.68 Y188.261 E65.38555
G1 X123.441 Y188.262 E65.93107
G1 X122.937 Y188.279 E65.94703
G1 X122.109 Y188.28 E65.97323
G1 X121.593 Y188.261 E65.98957
G1 X109.432 Y188.261 E66.37441
G1 X108.925 Y188.279 E66.39046
G1 X108.013 Y188.28 E66.41932
G1 X107.495 Y188.262 E66.43572
G1 X104.36 Y188.257 E66.53493
G1 X91.793 Y188.263 E66.93261
G1 X91.268 Y188.279 E66.94923
G1 X90.275 Y188.28 E66.98065
G1 X89.745 Y188.262 E66.99744
G1 X86.524 Y188.254 E67.09936
G1 X79.502 Y188.259 E67.32157
G1 X78.992 Y188.279 E67.33773
G1 X77.996 Y188.28 E67.36924
G1 X77.463 Y188.26 E67.38612
G1 X69.643 Y188.257 E67.63359
G1 X69.393 Y188.257 E67.6415
G1 X69.393 Y188.007 E67.64661
G1 X69.399 Y177.567 E67.97699
G1 X69.363 Y177.007 E67.99474
G1 X69.362 Y176.136 E68.02231
G1 X69.346 Y175.55 E68.04086
G1 X69.345 Y175.046 E68.05681
G1 X69.33 Y174.24 E68.08232
G1 X69.328 Y173.491 E68.10602
G1 X69.339 Y172.949 E68.12317
G1 X69.237 Y171.37 E68.17325
G1 X69.201 Y170.96 E68.18627
G1 X69.137 Y169.835 E68.22193
G1 X69.13 Y169.253 E68.24035
G1 X69.135 Y168.666 E68.25892
G1 X69.244 Y167.159 E68.30674
G1 X69.334 Y166.569 E68.32562
G1 X69.412 Y165.413 E68.36229
G1 X69.412 Y164.149 E68.40229
G1 X69.443 Y163.861 E68.41145
G1 X69.429 Y163.564 E68.42086
G1 X69.428 Y162.337 E68.45969
G1 X69.404 Y161.914 E68.4731
G1 X69.403 Y160.745 E68.51009
G1 X69.395 Y160.25 E68.52576
G1 X69.388 Y150.743 E68.8266
G1 X69.372 Y150.245 E68.84237
G1 X69.371 Y149.361 E68.87035
G1 X69.389 Y148.866 E68.88602
G1 X69.395 Y136.021 E69.2925
G1 X69.389 Y128.129 E69.54224
G1 X69.37 Y127.591 E69.55927
G1 X69.369 Y126.594 E69.59082
G1 X69.389 Y126.054 E69.60792
G1 X69.391 Y98.356 E70.48442
G1 X69.374 Y97.862 E70.50007
G1 X69.373 Y96.968 E70.52836
G1 X69.392 Y96.458 E70.54451
G1 X69.39 Y92.071 E70.68333
G1 X69.39 Y92.053 E70.6839
G1 X69.378 Y91.747 E70.69359
G1 X69.376 Y91.722 E70.69439
G1 X69.399 Y91.722
G1 X69.726 Y91.732 E70.6967
G1 X69.744 Y91.732 E70.69727
G1 X72.317 Y91.731 E70.77869
G1 X72.874 Y91.715 E70.79632
G1 X73.655 Y91.714 E70.82104
G1 X74.19 Y91.736 E70.83798
G1 X75.326 Y91.735 E70.87393
G1 X75.862 Y91.743 E70.89089
G1 X88.176 Y91.739 E71.28057
G0 F2625 X88.426 Y91.73
G0 X88.22 Y92.462
;TYPE:SKIN
G1 F900 X92.761 Y97.004 E71.48381
G1 X92.849 Y97.092
G0 F2625 X93.468 Y97.004
G1 F900 X88.908 Y92.443 E71.68791
G1 X88.82 Y92.355
G0 F2625 X89.616 Y92.445
G1 F900 X94.176 Y97.004 E71.89196
G1 X94.264 Y97.092
G0 F2625 X94.883 Y97.004
G1 F900 X90.342 Y92.463 E72.09518
G1 X90.254 Y92.375
G0 F2625 X91.051 Y92.465
G1 F900 X95.59 Y97.004 E72.29831
G1 X95.678 Y97.092
G0 F2625 X96.297 Y97.004
G1 F900 X91.759 Y92.466 E72.5014
G1 X91.671 Y92.378
G0 F2625 X92.468 Y92.468
G1 F900 X97.004 Y97.004 E72.70439
G1 X97.092 Y97.092
G0 F2625 X97.711 Y97.004
G1 F900 X93.176 Y92.469 E72.90735
G1 X93.088 Y92.381
G0 F2625 X93.884 Y92.47
G1 F900 X98.418 Y97.004 E73.11025
G1 X98.506 Y97.092
G0 F2625 X99.125 Y97.004
G1 F900 X94.591 Y92.469 E73.31319
G1 X94.503 Y92.381
G0 F2625 X95.297 Y92.469
G1 F900 X99.832 Y97.004 E73.51614
G1 X99.92 Y97.092
G0 F2625 X100.539 Y97.004
G1 F900 X96.003 Y92.468 E73.71914
G1 X95.915 Y92.38
G0 F2625 X96.71 Y92.467
G1 F900 X101.247 Y97.004 E73.92218
G1 X101.335 Y97.092
G0 F2625 X101.954 Y97.004
G1 F900 X97.417 Y92.467 E74.12522
G1 X97.329 Y92.379
G0 F2625 X98.123 Y92.466
G1 F900 X102.661 Y97.004 E74.32831
G1 X102.749 Y97.092
G0 F2625 X103.368 Y97.004
G1 F900 X98.83 Y92.466 E74.53139
G1 X98.742 Y92.378
G0 F2625 X99.536 Y92.465
G1 F900 X104.075 Y97.004 E74.73453
G1 X104.163 Y97.092
G0 F2625 X104.782 Y97.004
G1 F900 X100.242 Y92.464 E74.9377
G1 X100.154 Y92.376
G0 F2625 X100.949 Y92.464
G1 F900 X105.489 Y97.004 E75.14088
G1 X105.577 Y97.092
G0 F2625 X106.196 Y97.004
G1 F900 X101.655 Y92.463 E75.3441
G1 X101.567 Y92.375
G0 F2625 X102.362 Y92.462
G1 F900 X106.903 Y97.004 E75.54735
G1 X106.991 Y97.092
G0 F2625 X107.611 Y97.004
