;Generated by Cura LulzBot Edition GCodeWriter Version: 2.6.69
;FLAVOR:RepRap
;TIME:15995
;Filament used: 5.38893m
;Layer height: 0.18
;Generated with Cura_SteamEngine 2.6.69
;This G-Code has been generated specifically for the LulzBot TAZ 6 with standard extruder
G26 ; clear potential 'probe fail' condition
G21 ; set units to Millimetres
M107 ; disable fans
G90 ; absolute positioning
M82 ; set extruder to absolute mode
G92 E0 ; set extruder position to 0
M140 S85 ; start bed heating up
G28 XY ; home X and Y
G1 X-19 Y258 F1000 ; move to safe homing position
M109 R170 ; soften filament before homing Z
G28 Z ; home Z
G1 E-30 F100 ; retract filament
M109 R170 ; wait for extruder to reach wiping temp
G1 X-15 Y100 F3000 ; move above wiper pad
G1 Z1 ; push nozzle into wiper
G1 X-17 Y95 F1000 ; slow wipe
G1 X-17 Y90 F1000 ; slow wipe
G1 X-17 Y85 F1000 ; slow wipe
G1 X-15 Y90 F1000 ; slow wipe
G1 X-17 Y80 F1000 ; slow wipe
G1 X-15 Y95 F1000 ; slow wipe
G1 X-17 Y75 F2000 ; fast wipe
G1 X-15 Y65 F2000 ; fast wipe
G1 X-17 Y70 F2000 ; fast wipe
G1 X-15 Y60 F2000 ; fast wipe
G1 X-17 Y55 F2000 ; fast wipe
G1 X-15 Y50 F2000 ; fast wipe
G1 X-17 Y40 F2000 ; fast wipe
G1 X-15 Y45 F2000 ; fast wipe
G1 X-17 Y35 F2000 ; fast wipe
G1 X-15 Y40 F2000 ; fast wipe
G1 X-17 Y70 F2000 ; fast wipe
G1 X-15 Y30 Z2 F2000 ; fast wipe
G1 X-17 Y35 F2000 ; fast wipe
G1 X-15 Y25 F2000 ; fast wipe
G1 X-17 Y30 F2000 ; fast wipe
G1 X-15 Y25 Z1.5 F1000 ; slow wipe
G1 X-17 Y23 F1000 ; slow wipe
G1 Z10 ; raise extruder
M109 R170 ; wait for extruder to reach probe temp
G1 X-9 Y-9 ; move above first probe point
M204 S100 ; set probing acceleration
G29 ; start auto-leveling sequence
M204 S500 ; restore standard acceleration
G1 X0 Y0 Z15 F5000 ; move up off last probe point
G4 S1 ; pause
M400 ; wait for moves to finish
M117 Heating... ; progress indicator message on LCD
M109 R230 ; wait for extruder to reach printing temp
M190 S85 ; wait for bed to reach printing temp
G1 Z2 E0 F75 ; prime tiny bit of filament into the nozzle
M117 TAZ 6 Printing... ; progress indicator message on LCD

M221 S100
;LAYER_COUNT:90
;LAYER:0
M107
G0 F2625 X67.498 Y75.364 Z0.425
;TYPE:SKIRT
G1 F900 X68.01 Y74.917 E0.02151
G1 X69.317 Y73.999 E0.07205
G1 X69.756 Y73.74 E0.08818
G1 X70.133 Y73.584 E0.10109
G1 X72.228 Y72.867 E0.17116
G1 X72.721 Y72.74 E0.18727
G1 X73.114 Y72.696 E0.19979
G1 X74.794 Y72.61 E0.25302
G1 X75.303 Y72.624 E0.26913
G1 X75.562 Y72.662 E0.27742
G1 X76.708 Y72.878 E0.31432
G1 X77.017 Y72.952 E0.32438
G1 X78.027 Y73.247 E0.35767
G1 X78.666 Y73.511 E0.37955
G1 X80.114 Y74.297 E0.43169
G1 X80.13 Y74.305 E0.43225
G1 X81.762 Y75.202 E0.49118
G1 X86.666 Y77.639 E0.66448
G1 X91.72 Y79.804 E0.83847
G1 X94.256 Y80.767 E0.92431
G1 X99.443 Y82.482 E1.09719
G1 X104.777 Y83.921 E1.27202
G1 X107.398 Y84.508 E1.35701
G1 X112.784 Y85.479 E1.5302
G1 X118.228 Y86.146 E1.70376
G1 X123.709 Y86.505 E1.87758
G1 X127.268 Y86.57 E1.99022
G1 X155.39 Y86.53 E2.88014
G1 X160.867 Y86.22 E3.05374
G1 X166.298 Y85.603 E3.22671
G1 X171.711 Y84.675 E3.4005
G1 X174.326 Y84.112 E3.48515
G1 X177.005 Y83.456 E3.57243
G1 X182.273 Y81.925 E3.74603
G1 X187.449 Y80.098 E3.91973
G1 X192.48 Y77.994 E4.09229
G1 X197.431 Y75.587 E4.2665
G1 X200.979 Y73.664 E4.39421
G1 X201.572 Y73.415 E4.41456
G1 X203.545 Y72.808 E4.47988
G1 X204.043 Y72.696 E4.49604
G1 X204.423 Y72.665 E4.5081
G1 X206.133 Y72.624 E4.56223
G1 X206.642 Y72.652 E4.57836
G1 X206.898 Y72.697 E4.58659
G1 X208.335 Y73.008 E4.63311
G1 X208.998 Y73.228 E4.65522
G1 X210.292 Y73.819 E4.70024
G1 X210.663 Y74.018 E4.71356
G1 X211.587 Y74.595 E4.74803
G1 X211.997 Y74.898 E4.76416
G1 X212.199 Y75.089 E4.77296
G1 X213.456 Y76.385 E4.83009
G1 X213.781 Y76.778 E4.84623
G1 X214.011 Y77.105 E4.85888
G1 X214.286 Y77.574 E4.87609
G1 X215.127 Y79.335 E4.93784
G1 X215.31 Y79.811 E4.95398
G1 X215.405 Y80.235 E4.96773
G1 X215.732 Y82.333 E5.03492
G1 X215.771 Y82.834 E5.05083
G1 X215.77 Y197.17 E8.66897
G1 X215.737 Y197.631 E8.6836
G1 X215.46 Y199.563 E8.74536
G1 X215.348 Y200.06 E8.76148
G1 X215.21 Y200.427 E8.77389
G1 X214.448 Y202.133 E8.83302
G1 X214.066 Y202.778 E8.85674
G1 X213.576 Y203.421 E8.88232
G1 X213.329 Y203.708 E8.8943
G1 X212.073 Y205.009 E8.95153
G1 X211.692 Y205.347 E8.96764
G1 X211.313 Y205.593 E8.98194
G1 X209.695 Y206.492 E9.04052
G1 X209.027 Y206.771 E9.06342
G1 X208.094 Y207.043 E9.09418
G1 X207.787 Y207.117 E9.10417
G1 X206.68 Y207.326 E9.13982
G1 X205.941 Y207.379 E9.16327
G1 X204.623 Y207.324 E9.20501
G1 X204.204 Y207.279 E9.21835
G1 X203.016 Y207.073 E9.2565
G1 X202.354 Y206.885 E9.27828
G1 X201.002 Y206.339 E9.32442
G1 X200.648 Y206.17 E9.33683
G1 X198.598 Y205.038 E9.41094
G1 X193.687 Y202.566 E9.58492
G1 X188.649 Y200.379 E9.75872
G1 X186.068 Y199.383 E9.84627
G1 X183.552 Y198.499 E9.93066
G1 X178.301 Y196.894 E10.10442
G1 X172.939 Y195.582 E10.2791
G1 X170.3 Y195.052 E10.36428
G1 X167.622 Y194.596 E10.45024
G1 X162.172 Y193.902 E10.6241
G1 X156.694 Y193.515 E10.79788
G1 X152.63 Y193.43 E10.92652
G1 X124.54 Y193.47 E11.81542
G1 X119.063 Y193.78 E11.98902
G1 X113.632 Y194.397 E12.16199
G1 X108.219 Y195.325 E12.33578
G1 X105.604 Y195.888 E12.42043
G1 X102.925 Y196.544 E12.50771
G1 X97.657 Y198.075 E12.68131
G1 X92.481 Y199.902 E12.85501
G1 X87.45 Y202.006 E13.02757
G1 X82.517 Y204.404 E13.20114
G1 X78.898 Y206.389 E13.33176
G1 X78.206 Y206.67 E13.3554
G1 X76.163 Y207.238 E13.4225
G1 X75.567 Y207.345 E13.44166
G1 X75.12 Y207.383 E13.45586
G1 X74.625 Y207.388 E13.47152
G1 X72.897 Y207.271 E13.52633
G1 X72.393 Y207.196 E13.54246
G1 X72.005 Y207.082 E13.55525
G1 X70.001 Y206.352 E13.62275
G1 X69.537 Y206.14 E13.63889
G1 X69.231 Y205.948 E13.65032
G1 X67.924 Y205.02 E13.70105
G1 X67.533 Y204.693 E13.71718
G1 X67.312 Y204.454 E13.72748
G1 X66.088 Y202.989 E13.78789
G1 X65.793 Y202.573 E13.80403
G1 X65.626 Y202.257 E13.81534
G1 X64.833 Y200.523 E13.87567
G1 X64.658 Y200.044 E13.89181
G1 X64.578 Y199.675 E13.90376
G1 X64.278 Y197.762 E13.96504
G1 X64.239 Y197.259 E13.981
G1 X64.22 Y83.528 E17.58
G1 X64.233 Y83.234 E17.58931
G1 X64.448 Y80.856 E17.66487
G1 X64.534 Y80.354 E17.68099
G1 X64.674 Y79.927 E17.69521
G1 X65.415 Y78.101 E17.75757
G1 X65.643 Y77.645 E17.7737
G1 X65.824 Y77.376 E17.78396
G1 X66.532 Y76.43 E17.82135
G1 X66.754 Y76.164 E17.83232
G1 X67.498 Y75.364 E17.86689
G1 F600 E16.86689
G0 F2625 X69.185 Y77.285
G0 X70.12 Y78.348
G0 X70.374 Y78.256
G0 X70.313 Y78.178
;TYPE:WALL-INNER
G1 F600 E17.86689
G1 F900 X71.567 Y77.295 E17.91542
G1 X71.82 Y77.176 E17.92427
G1 X73.267 Y76.698 E17.97249
G1 X73.529 Y76.651 E17.98092
G1 X74.785 Y76.586 E18.02072
G1 X75.036 Y76.608 E18.02869
G1 X76.534 Y76.932 E18.07719
G1 X76.779 Y77.026 E18.08549
G1 X78.149 Y77.782 E18.13501
G1 X78.356 Y77.943 E18.14331
G1 X79.531 Y79.178 E18.19725
G1 X79.696 Y79.411 E18.20629
G1 X80.358 Y80.784 E18.25452
G1 X80.443 Y80.999 E18.26184
G1 X80.72 Y82.871 E18.32172
G1 X80.72 Y90.57 E18.56536
G1 X199.28 Y90.57 E22.31717
G1 X199.28 Y82.863 E22.56106
G1 X199.474 Y81.29 E22.61121
G1 X199.541 Y81.087 E22.61798
G1 X200.067 Y79.805 E22.66183
G1 X200.21 Y79.564 E22.67069
G1 X201.186 Y78.346 E22.72009
G1 X201.384 Y78.156 E22.72877
G1 X202.653 Y77.288 E22.77742
G1 X202.895 Y77.165 E22.78601
G1 X204.328 Y76.699 E22.8337
G1 X204.578 Y76.651 E22.84175
G1 X205.845 Y76.588 E22.8819
G1 X206.094 Y76.605 E22.88979
G1 X207.55 Y76.92 E22.93693
G1 X207.808 Y77.011 E22.94559
G1 X209.161 Y77.749 E22.99436
G1 X209.373 Y77.908 E23.00275
G1 X210.557 Y79.127 E23.05652
G1 X210.719 Y79.36 E23.0655
G1 X211.391 Y80.693 E23.11274
G1 X211.472 Y80.903 E23.11987
G1 X211.51 Y81.191 E23.12906
G1 X211.78 Y82.882 E23.18325
G1 X211.78 Y197.129 E26.79858
G1 X211.6 Y198.503 E26.84243
G1 X211.544 Y198.85 E26.85355
G1 X210.888 Y200.345 E26.90521
G1 X210.733 Y200.62 E26.9152
G1 X209.501 Y201.979 E26.97325
G1 X209.289 Y202.161 E26.98209
G1 X207.798 Y202.983 E27.03597
G1 X207.548 Y203.086 E27.04453
G1 X206.007 Y203.393 E27.09425
G1 X205.741 Y203.417 E27.1027
G1 X204.211 Y203.272 E27.15133
G1 X203.957 Y203.22 E27.15954
G1 X202.706 Y202.742 E27.20192
G1 X202.478 Y202.623 E27.21006
G1 X201.296 Y201.761 E27.25635
G1 X201.131 Y201.61 E27.26343
G1 X200.232 Y200.464 E27.30952
G1 X200.134 Y200.324 E27.31493
G1 X199.457 Y198.625 E27.3728
G1 X199.28 Y197.134 E27.42032
G1 X199.28 Y189.43 E27.66411
G1 X80.72 Y189.43 E31.41592
G1 X80.72 Y197.126 E31.65946
G1 X80.532 Y198.533 E31.70438
G1 X80.478 Y198.874 E31.71531
G1 X79.834 Y200.331 E31.76572
G1 X79.672 Y200.623 E31.77628
G1 X78.563 Y201.877 E31.82926
G1 X78.337 Y202.076 E31.83879
G1 X77.007 Y202.873 E31.88785
G1 X76.74 Y202.989 E31.89707
G1 X75.169 Y203.375 E31.94826
G1 X74.9 Y203.404 E31.95682
G1 X73.297 Y203.307 E32.00764
G1 X73.055 Y203.259 E32.01545
G1 X71.739 Y202.79 E32.05966
G1 X71.505 Y202.669 E32.06799
G1 X70.266 Y201.787 E32.11612
G1 X70.051 Y201.582 E32.12552
G1 X69.136 Y200.411 E32.17255
G1 X69.001 Y200.185 E32.18088
G1 X68.487 Y198.921 E32.22406
G1 X68.411 Y198.7 E32.23145
G1 X68.22 Y197.138 E32.28125
G1 X68.22 Y82.864 E35.89743
G1 X68.414 Y81.295 E35.94746
G1 X68.482 Y81.091 E35.95427
G1 X69.02 Y79.774 E35.99929
G1 X69.169 Y79.542 E36.00801
G1 X70.09 Y78.374 E36.05508
G1 X70.313 Y78.178 E36.06448
G0 F2625 X70.374 Y78.256
G0 X72.727 Y81.314
G0 X72.794 Y81.388
G1 F900 X72.592 Y81.607 E36.07391
G1 X72.323 Y82.029 E36.08974
G1 X72.206 Y82.315 E36.09952
G1 X72.1 Y82.825 E36.116
G1 X72.098 Y83.161 E36.12664
G1 X72.186 Y83.662 E36.14273
G1 X72.3 Y83.964 E36.15295
G1 X72.551 Y84.381 E36.16835
G1 X72.765 Y84.625 E36.17862
G1 X73.158 Y84.931 E36.19438
G1 X73.463 Y85.086 E36.20521
G1 X73.956 Y85.236 E36.22152
G1 X74.289 Y85.266 E36.2321
G1 X74.774 Y85.223 E36.24751
G1 X75.104 Y85.134 E36.25832
G1 X75.545 Y84.918 E36.27386
G1 X75.798 Y84.73 E36.28383
G1 X76.129 Y84.386 E36.29894
G1 X76.259 Y84.181 E36.30662
G1 X76.466 Y83.78 E36.3209
G1 X76.602 Y83.02 E36.34534
G1 X76.468 Y82.263 E36.36966
G1 X76.278 Y81.902 E36.38257
G1 X76.086 Y81.594 E36.39406
G1 X75.746 Y81.274 E36.40883
G1 X75.499 Y81.091 E36.41856
G1 X75.047 Y80.889 E36.43423
G1 X74.766 Y80.812 E36.44345
G1 X74.256 Y80.776 E36.45963
G1 X73.952 Y80.805 E36.46929
G1 X73.453 Y80.953 E36.48576
G1 X73.186 Y81.092 E36.49529
G1 X72.794 Y81.388 E36.51083
G0 F2625 X72.727 Y81.314
G0 X72.288 Y82.011
G0 X72.061 Y82.821
G0 X72.148 Y83.672
G0 X74.13 Y91.635
G0 X74.14 Y91.734
G1 F900 X73.592 Y91.842 E36.52851
G1 X72.144 Y92.369 E36.57727
G1 X71.654 Y92.657 E36.59525
G1 X70.448 Y93.67 E36.64509
G1 X70.083 Y94.107 E36.66311
G1 X69.282 Y95.524 E36.71462
G1 X69.093 Y96.038 E36.73195
G1 X68.843 Y97.529 E36.77979
G1 X68.835 Y98.043 E36.79606
G1 X69.127 Y99.721 E36.84996
G1 X69.281 Y100.123 E36.86358
G1 X70.084 Y101.551 E36.91542
G1 X70.36 Y101.867 E36.9287
G1 X71.609 Y102.967 E36.98137
G1 X71.969 Y103.17 E36.99445
G1 X73.537 Y103.795 E37.04786
G1 X73.943 Y103.87 E37.06093
G1 X75.671 Y103.925 E37.11564
G1 X76.082 Y103.857 E37.12882
G1 X77.666 Y103.342 E37.18153
G1 X78.018 Y103.149 E37.19423
G1 X79.383 Y102.09 E37.2489
G1 X79.656 Y101.791 E37.26172
G1 X80.61 Y100.243 E37.31926
G1 X80.765 Y99.868 E37.3321
G1 X80.83 Y99.435 E37.34595
G1 X81.132 Y97.827 E37.39773
G1 X80.884 Y96.353 E37.44503
G1 X80.822 Y95.918 E37.45893
G1 X80.633 Y95.485 E37.47388
G1 X79.816 Y94.042 E37.52636
G1 X79.451 Y93.636 E37.54363
G1 X78.285 Y92.647 E37.59202
G1 X77.785 Y92.375 E37.61003
G1 X76.171 Y91.801 E37.66424
G1 X75.614 Y91.717 E37.68206
G1 X74.14 Y91.734 E37.72871
G0 F2625 X74.13 Y91.635
G0 X75.616 Y91.678
G0 X76.18 Y91.763
G0 X77.801 Y92.339
G0 X78.307 Y92.615
G0 X79.478 Y93.608
G0 X86.065 Y100.786
G0 X86.145 Y100.845
G1 F900 X86.034 Y101.024 E37.73538
G1 X85.925 Y101.301 E37.7448
G1 X85.88 Y101.509 E37.75153
G1 X85.867 Y101.819 E37.76135
G1 X85.902 Y102.046 E37.76862
G1 X85.998 Y102.332 E37.77816
G1 X86.105 Y102.53 E37.78529
G1 X86.296 Y102.767 E37.79492
G1 X86.459 Y102.912 E37.80182
G1 X86.722 Y103.07 E37.81153
G1 X86.926 Y103.151 E37.81848
G1 X87.223 Y103.206 E37.82804
G1 X87.443 Y103.214 E37.835
G1 X87.76 Y103.164 E37.84516
G1 X87.962 Y103.092 E37.85194
G1 X88.231 Y102.942 E37.86169
G1 X88.394 Y102.808 E37.86837
G1 X88.595 Y102.577 E37.87806
G1 X88.696 Y102.403 E37.88442
G1 X88.811 Y102.133 E37.89371
G1 X88.874 Y101.72 E37.90693
G1 X88.838 Y101.468 E37.91499
G1 X88.772 Y101.198 E37.92378
G1 X88.664 Y100.96 E37.93205
G1 X88.488 Y100.725 E37.94134
G1 X88.337 Y100.568 E37.94824
G1 X88.048 Y100.384 E37.95908
G1 X87.851 Y100.294 E37.96593
G1 X87.526 Y100.226 E37.97644
G1 X87.309 Y100.216 E37.98331
G1 X86.983 Y100.263 E37.99374
G1 X86.778 Y100.336 E38.00062
G1 X86.516 Y100.479 E38.01007
G1 X86.343 Y100.618 E38.01709
G1 X86.145 Y100.845 E38.02662
G0 F2625 X86.065 Y100.786
G0 X85.841 Y101.504
G0 X75.726 Y175.986
G0 X75.72 Y176.085
G1 F900 X73.956 Y176.124 E38.08246
G1 X73.541 Y176.207 E38.09585
G1 X71.981 Y176.813 E38.14881
G1 X71.629 Y177.027 E38.16185
G1 X70.371 Y178.11 E38.21438
G1 X70.111 Y178.424 E38.22728
G1 X69.284 Y179.863 E38.2798
G1 X69.139 Y180.249 E38.29285
G1 X68.836 Y181.955 E38.34768
G1 X68.83 Y182.373 E38.36091
G1 X69.111 Y184.017 E38.41369
G1 X69.247 Y184.414 E38.42696
G1 X70.119 Y185.94 E38.48258
G1 X70.385 Y186.27 E38.496
G1 X71.737 Y187.396 E38.55167
G1 X72.115 Y187.62 E38.56558
G1 X73.762 Y188.2 E38.62084
G1 X74.276 Y188.275 E38.63727
G1 X75.904 Y188.25 E38.6888
G1 X76.462 Y188.129 E38.70686
G1 X77.889 Y187.586 E38.75518
G1 X78.36 Y187.29 E38.77278
G1 X79.55 Y186.274 E38.8223
G1 X79.902 Y185.816 E38.84058
G1 X80.707 Y184.392 E38.89234
G1 X80.852 Y183.811 E38.91129
G1 X81.127 Y182.202 E38.96295
G1 X81.082 Y181.793 E38.97597
G1 X80.851 Y180.387 E39.02106
G1 X80.701 Y179.985 E39.03464
G1 X79.835 Y178.432 E39.0909
G1 X79.562 Y178.105 E39.10438
G1 X78.238 Y176.981 E39.15934
G1 X77.856 Y176.763 E39.17326
G1 X76.14 Y176.151 E39.23092
G1 X75.72 Y176.085 E39.24437
G0 F2625 X75.726 Y175.986
G0 X77.872 Y176.727
G0 X85.929 Y181.579
G0 X86.019 Y181.621
G1 F900 X85.915 Y181.904 E39.25391
G1 X85.874 Y182.119 E39.26084
G1 X85.872 Y182.433 E39.27077
G1 X85.91 Y182.644 E39.27756
G1 X86.009 Y182.925 E39.28699
G1 X86.113 Y183.11 E39.2937
G1 X86.302 Y183.343 E39.3032
G1 X86.467 Y183.485 E39.31008
G1 X86.725 Y183.641 E39.31963
G1 X86.939 Y183.722 E39.32687
G1 X87.233 Y183.777 E39.33633
G1 X87.446 Y183.782 E39.34307
G1 X87.756 Y183.735 E39.353
G1 X87.971 Y183.657 E39.36023
G1 X88.227 Y183.512 E39.36954
G1 X88.391 Y183.38 E39.3762
G1 X88.591 Y183.154 E39.38576
G1 X88.697 Y182.97 E39.39247
G1 X88.811 Y182.703 E39.40166
G1 X88.875 Y182.284 E39.41507
G1 X88.805 Y181.83 E39.42961
G1 X88.583 Y181.392 E39.44515
G1 X88.232 Y181.053 E39.46059
G1 X87.987 Y180.922 E39.46938
G1 X87.763 Y180.835 E39.47699
G1 X87.471 Y180.789 E39.48634
G1 X87.259 Y180.788 E39.49305
G1 X86.958 Y180.84 E39.50272
G1 X86.762 Y180.911 E39.50931
G1 X86.5 Y181.058 E39.51882
G1 X86.332 Y181.197 E39.52572
G1 X86.131 Y181.432 E39.53551
G1 X86.019 Y181.621 E39.54246
G0 F2625 X85.929 Y181.579
G0 X75.717 Y195.076
G0 X75.661 Y195.158
G1 F900 X75.23 Y194.917 E39.55809
G1 X74.983 Y194.827 E39.5664
G1 X74.503 Y194.738 E39.58185
G1 X74.199 Y194.737 E39.59147
G1 X73.732 Y194.816 E39.60646
G1 X73.456 Y194.913 E39.61572
G1 X73.048 Y195.142 E39.63052
G1 X72.828 Y195.313 E39.63934
G1 X72.491 Y195.705 E39.6557
G1 X72.344 Y195.946 E39.66463
G1 X72.16 Y196.434 E39.68114
G1 X72.11 Y196.715 E39.69017
G1 X72.102 Y197.207 E39.70574
G1 X72.153 Y197.5 E39.71515
G1 X72.316 Y197.956 E39.73048
G1 X72.461 Y198.217 E39.73992
G1 X72.756 Y198.572 E39.75453
G1 X72.974 Y198.769 E39.76383
G1 X73.402 Y199.021 E39.77955
G1 X73.679 Y199.129 E39.78895
G1 X74.168 Y199.219 E39.80469
G1 X74.475 Y199.227 E39.81441
G1 X74.966 Y199.137 E39.8302
G1 X75.257 Y199.034 E39.83997
G1 X75.684 Y198.779 E39.85571
G1 X75.917 Y198.585 E39.86531
G1 X76.241 Y198.171 E39.88194
G1 X76.394 Y197.905 E39.89165
G1 X76.546 Y197.31 E39.91109
G1 X76.601 Y196.975 E39.92183
G1 X76.465 Y196.214 E39.94629
G1 X76.275 Y195.857 E39.95909
G1 X76.118 Y195.592 E39.96884
G1 X75.797 Y195.27 E39.98322
G1 X75.661 Y195.158 E39.9888
G0 F2625 X75.717 Y195.076
G0 X80.692 Y189.402
G0 X179.043 Y182.463
G0 X179.142 Y182.453
G1 F900 X179.188 Y182.681 E39.99616
